X:0038
T:Quick March 8th. Regt.
M:6/8
L:1/8
Q:3/8=84
I: :: ::
Z:Jack Campin * www.campin.me.uk * 2009
K:G % Aird has two sharps, this must be a typo
gfe dBc|ded def|gfe def|gdB A2G|
gfe dBc|ded def|gfe dgd|BGG G3:|
BGG cAA|BGG AFD|BGG cAA|BGB d2g|
BGG cAA|BGB def|gfe dgd|BGG G3:|
<end>
<start>
